icons-rebrand/svg/people-bold.svg

<svg xmlns="http://www.w3.org/2000/svg" width="32" height="32" viewBox="0 0 32 32"><path d="M23.764 16.6698C24.9864 15.6918 25.7775 14.2743 25.9683 12.7205C26.159 11.1667 25.7342 9.59994 24.7847 8.3553C23.8352 7.11066 22.4364 6.28697 20.8874 6.06038C19.3384 5.83379 17.7622 6.2223 16.496 7.14281C16.498 7.09581 16.51 7.05081 16.51 7.00281C16.5122 6.17563 16.3092 5.36082 15.9192 4.63139C15.5291 3.90196 14.9641 3.2807 14.2749 2.82328C13.5857 2.36587 12.7938 2.08659 11.9701 2.01047C11.1464 1.93436 10.3168 2.06378 9.5554 2.38714C8.79404 2.71051 8.1248 3.21771 7.60766 3.86331C7.09051 4.5089 6.74161 5.27271 6.59223 6.08629C6.44285 6.89987 6.49764 7.73781 6.75171 8.525C7.00578 9.3122 7.45118 10.0241 8.048 10.5968C6.34106 11.1282 4.84177 12.1776 3.75806 13.5994C2.67435 15.0213 2.05993 16.7451 2 18.5318C2 19.6608 2.57 21.2338 5.287 22.3138C6.859 22.8888 8.511 23.2158 10.184 23.2838C10.0635 23.8388 10.0018 24.4049 10 24.9728C10 26.1498 10.598 27.7908 13.442 28.9228C15.5436 29.6779 17.7653 30.0429 19.998 29.9998C24.975 29.9998 29.997 28.4458 29.997 24.9738C29.9372 23.1168 29.3068 21.3234 28.1915 19.8374C27.0763 18.3514 25.5303 17.245 23.764 16.6688V16.6698ZM20 8.00381C21.0498 8.0196 22.0513 8.44752 22.7884 9.19522C23.5255 9.94291 23.939 10.9504 23.9398 12.0004C23.9406 13.0503 23.5286 14.0584 22.7926 14.8072C22.0566 15.556 21.0558 15.9854 20.006 16.0028H19.993C18.9321 16.0019 17.9151 15.5796 17.1656 14.8288C16.4161 14.078 15.9956 13.0602 15.9965 11.9993C15.9974 10.9384 16.4197 9.9214 17.1705 9.17191C17.9213 8.42242 18.9391 8.00188 20 8.00281V8.00381ZM11.51 4.00381C11.904 4.00381 12.2941 4.08141 12.6581 4.23217C13.022 4.38294 13.3527 4.60391 13.6313 4.88249C13.9099 5.16107 14.1309 5.49178 14.2816 5.85576C14.4324 6.21974 14.51 6.60985 14.51 7.00381C14.51 7.39778 14.4324 7.78788 14.2816 8.15186C14.1309 8.51584 13.9099 8.84656 13.6313 9.12513C13.3527 9.40371 13.022 9.62469 12.6581 9.77545C12.2941 9.92621 11.904 10.0038 11.51 10.0038C10.7144 10.0038 9.95129 9.68774 9.38868 9.12513C8.82607 8.56252 8.51 7.79946 8.51 7.00381C8.51 6.20816 8.82607 5.4451 9.38868 4.88249C9.95129 4.31988 10.7144 4.00381 11.51 4.00381ZM10.873 21.3238C7.03 21.2048 4 19.9998 4 18.5338C4 14.9338 7.365 12.0058 11.502 12.0058C12.356 12.0058 13.204 12.1358 14.019 12.3918C14.0716 13.2193 14.2956 14.0269 14.6767 14.7633C15.0578 15.4998 15.5878 16.149 16.233 16.6698C13.9191 17.4834 12.0023 19.1484 10.873 21.3258V21.3238ZM19.998 27.9998C15.513 27.9998 12 26.6698 12 24.9728C12 21.1308 15.588 18.0028 20 18.0028C24.41 18.0028 27.997 21.1298 27.997 24.9728C27.997 26.6708 24.483 27.9998 19.997 27.9998H19.998Z"/></svg>

<svg width="32" height="32" viewBox="0 0 32 32" xmlns="http://www.w3.org/2000/svg"><path d="M23.764 16.67a5.993 5.993 0 0 0-7.268-9.527c.002-.048.014-.092.014-.14a5 5 0 1 0-8.462 3.594A8.613 8.613 0 0 0 2 18.532c0 1.129.57 2.702 3.287 3.782a16.19 16.19 0 0 0 4.897.97A8.08 8.08 0 0 0 10 24.973c0 1.177.598 2.818 3.442 3.95A18.342 18.342 0 0 0 19.998 30c4.977 0 9.999-1.554 9.999-5.026a9.042 9.042 0 0 0-6.233-8.305ZM20 8.004a4 4 0 0 1 .006 7.999h-.013a4 4 0 0 1 .007-8ZM11.51 4.004a3 3 0 1 1 0 6 3 3 0 0 1 0-6Zm-.637 17.32C7.03 21.205 4 20 4 18.534c0-3.6 3.365-6.528 7.502-6.528.854 0 1.702.13 2.517.386a5.986 5.986 0 0 0 2.214 4.278 9.64 9.64 0 0 0-5.36 4.656ZM19.998 28C15.513 28 12 26.67 12 24.973c0-3.842 3.588-6.97 8-6.97 4.41 0 7.997 3.127 7.997 6.97 0 1.698-3.514 3.027-8 3.027Z"/></svg>
